X:2
T:Darn That Dream
C:Jimmy Van Heusen
L:1/8
M:C
I:linebreak $
K:Ab
"Ab" E2 A2"E7" =E3 =E |"Bbm" F2 B2"C7" _G3 =G |"Fm" A2 c2"Gø" =ABcd |$"Cø" e2 f2"F7" c4 |
"Bbm" c2 e2"Gb7" dcBA |"Cm" G2 B2"E7" _G3 _G ||1"Bbm" E4"Bo" G4 |"Bbm" E4"A7" z4 :|2$
"Bbm" E4"A7" c4 |"Ab" A4"Fm" z4 ||[K:E]"E" G3 G"C#m" F3 E |"F#m" c2 c2"B7" A3 B |
"E" (3d2 e2 d2"C#7" =d3 =c |$"F#m" B2 A2"B7" F4 |"E" G3 G"A#ø" F3 E |
"G#m" G2"Go" ^A2"G#m" B2"Fø" c2 ||$[K:Ab]"Bbm" (3e2 e2 e2"Cm" e2 E2 |
"Dbm" =B4"Eb7""_D.C. al 3rd end." c4 ||3"Bbm" E4"A7" c4 |"Ab" A8 |]

